X: 27
T:Skirmish
M:4/4
L:1/4
C:Nick Barber
S:Nick's Maggot
R:Reel
N:White Rose Morri
Z:Bill Johnsto
K:G
 a|b2 a/2g/2f/2a/2 |g2 d/2e/2d/2c/2| B G d G  |e/2d/2c/2/B/2  A a| b2 a/
2g/2f/2a/2|g2 d B/2c/2| d e d B |A2 G :||
G/2 A/2| B d A d | B d A d |B d A d| e/2d/2c/2B/2 A G/2A/2 |B d A d| B d
 A B/2c/2| d e d B |A2 G :||
